icons/op-add-widget-16.svg

<svg width="16" height="16" viewBox="0 0 16 16" fill="none" xmlns="http://www.w3.org/2000/svg">
<path fill-rule="evenodd" clip-rule="evenodd" d="M3.25 7.5C2.2835 7.5 1.5 6.7165 1.5 5.75L1.5 3.25C1.5 2.2835 2.2835 1.5 3.25 1.5L5.75 1.5C6.7165 1.5 7.5 2.2835 7.5 3.25V5.75C7.5 6.7165 6.7165 7.5 5.75 7.5H3.25ZM5.75 6C5.88807 6 6 5.88807 6 5.75V3.25C6 3.11193 5.88807 3 5.75 3L3.25 3C3.11193 3 3 3.11193 3 3.25L3 5.75C3 5.88807 3.11193 6 3.25 6H5.75Z" fill="#636C76"/>
<path d="M11.5 7C11.1235 7 10.8185 6.69483 10.8184 6.31836V5.18164L9.68164 5.18164C9.30516 5.18154 9 4.8765 9 4.5C9 4.1235 9.30516 3.81846 9.68164 3.81836L10.8184 3.81836V2.68164C10.8185 2.30516 11.1235 2 11.5 2C11.8765 2 12.1815 2.30516 12.1816 2.68164V3.81836L13.3184 3.81836C13.6948 3.81845 14 4.1235 14 4.5C14 4.8765 13.6948 5.18155 13.3184 5.18164L12.1816 5.18164V6.31836C12.1815 6.69483 11.8765 7 11.5 7Z" fill="#636C76"/>
<path fill-rule="evenodd" clip-rule="evenodd" d="M10.25 14.5C9.2835 14.5 8.5 13.7165 8.5 12.75L8.5 10.25C8.5 9.2835 9.2835 8.5 10.25 8.5H12.75C13.7165 8.5 14.5 9.2835 14.5 10.25V12.75C14.5 13.7165 13.7165 14.5 12.75 14.5L10.25 14.5ZM12.75 13C12.8881 13 13 12.8881 13 12.75V10.25C13 10.1119 12.8881 10 12.75 10L10.25 10C10.1119 10 10 10.1119 10 10.25V12.75C10 12.8881 10.1119 13 10.25 13L12.75 13Z" fill="#636C76"/>
<path fill-rule="evenodd" clip-rule="evenodd" d="M3.25 14.5C2.2835 14.5 1.5 13.7165 1.5 12.75L1.5 10.25C1.5 9.2835 2.2835 8.5 3.25 8.5H5.75C6.7165 8.5 7.5 9.2835 7.5 10.25L7.5 12.75C7.5 13.7165 6.7165 14.5 5.75 14.5H3.25ZM5.75 13C5.88807 13 6 12.8881 6 12.75L6 10.25C6 10.1119 5.88807 10 5.75 10H3.25C3.11193 10 3 10.1119 3 10.25L3 12.75C3 12.8881 3.11193 13 3.25 13H5.75Z" fill="#636C76"/>
</svg>

<svg xmlns="http://www.w3.org/2000/svg" width="16" height="16" viewBox="0 0 16 16"><path d="M3.25 7.5A1.75 1.75 0 0 1 1.5 5.75v-2.5c0-.967.783-1.75 1.75-1.75h2.5c.966 0 1.75.783 1.75 1.75v2.5A1.75 1.75 0 0 1 5.75 7.5ZM5.75 6A.25.25 0 0 0 6 5.75v-2.5A.25.25 0 0 0 5.75 3h-2.5a.25.25 0 0 0-.25.25v2.5c0 .138.112.25.25.25Zm5.75 1a.682.682 0 0 1-.682-.682V5.182H9.682a.682.682 0 1 1 0-1.364h1.136V2.682a.682.682 0 0 1 1.364 0v1.136h1.136a.682.682 0 1 1 0 1.364h-1.136v1.136A.682.682 0 0 1 11.5 7Zm-1.25 7.5a1.75 1.75 0 0 1-1.75-1.75v-2.5c0-.967.783-1.75 1.75-1.75h2.5c.967 0 1.75.783 1.75 1.75v2.5a1.75 1.75 0 0 1-1.75 1.75Zm2.5-1.5a.25.25 0 0 0 .25-.25v-2.5a.25.25 0 0 0-.25-.25h-2.5a.25.25 0 0 0-.25.25v2.5c0 .138.112.25.25.25Zm-9.5 1.5a1.75 1.75 0 0 1-1.75-1.75v-2.5c0-.967.783-1.75 1.75-1.75h2.5c.966 0 1.75.783 1.75 1.75v2.5a1.75 1.75 0 0 1-1.75 1.75Zm2.5-1.5a.25.25 0 0 0 .25-.25v-2.5a.25.25 0 0 0-.25-.25h-2.5a.25.25 0 0 0-.25.25v2.5c0 .138.112.25.25.25Z"/></svg>
